src/gesture/dpad-symbolic.svg

<svg width="64" height="64" version="1.1" xmlns="http://www.w3.org/2000/svg">
  <title>Gnome Symbolic Icon Theme</title>
  <g transform="translate(-283,-601)">
    <path transform="translate(283,601)" d="m20 0v20h-20v24h20v20h24v-20h20v-24h-20v-20h-24zm3 3h18v20h20v18h-20v20h-18v-20h-20v-18h20v-20z" fill="#bebebe"/>
  </g>
</svg>

<?xml version="1.0" encoding="UTF-8" standalone="no"?>
<!-- Created with Inkscape (http://www.inkscape.org/) -->

<svg
   xmlns:dc="http://purl.org/dc/elements/1.1/"
   xmlns:cc="http://creativecommons.org/ns#"
   xmlns:rdf="http://www.w3.org/1999/02/22-rdf-syntax-ns#"
   xmlns:svg="http://www.w3.org/2000/svg"
   xmlns="http://www.w3.org/2000/svg"
   xmlns:sodipodi="http://sodipodi.sourceforge.net/DTD/sodipodi-0.dtd"
   xmlns:inkscape="http://www.inkscape.org/namespaces/inkscape"
   sodipodi:docname="dpad-symbolic.svg"
   height="64"
   id="svg7384"
   inkscape:version="0.92.3 (2405546, 2018-03-11)"
   version="1.1"
   width="64">
  <metadata
     id="metadata90">
    <rdf:RDF>
      <cc:Work
         rdf:about="">
        <dc:format>image/svg+xml</dc:format>
        <dc:type
           rdf:resource="http://purl.org/dc/dcmitype/StillImage" />
        <dc:title>Gnome Symbolic Icon Theme</dc:title>
      </cc:Work>
    </rdf:RDF>
  </metadata>
  <sodipodi:namedview
     inkscape:bbox-paths="false"
     bordercolor="#666666"
     borderopacity="1"
     inkscape:current-layer="layer11"
     inkscape:cx="6.0466676"
     inkscape:cy="31.08211"
     gridtolerance="10"
     inkscape:guide-bbox="true"
     guidetolerance="10"
     id="namedview88"
     inkscape:object-nodes="false"
     inkscape:object-paths="false"
     objecttolerance="10"
     pagecolor="#555753"
     inkscape:pageopacity="1"
     inkscape:pageshadow="2"
     showborder="false"
     showgrid="true"
     showguides="true"
     inkscape:snap-bbox="true"
     inkscape:snap-bbox-midpoints="false"
     inkscape:snap-global="true"
     inkscape:snap-grids="true"
     inkscape:snap-nodes="false"
     inkscape:snap-others="false"
     inkscape:snap-to-guides="true"
     inkscape:window-height="1016"
     inkscape:window-maximized="1"
     inkscape:window-width="1920"
     inkscape:window-x="0"
     inkscape:window-y="27"
     inkscape:zoom="7.9999999">
    <inkscape:grid
       empspacing="2"
       enabled="true"
       id="grid4866"
       snapvisiblegridlinesonly="true"
       spacingx="1"
       spacingy="1"
       type="xygrid"
       visible="true"
       originx="0"
       originy="0" />
  </sodipodi:namedview>
  <title
     id="title9167">Gnome Symbolic Icon Theme</title>
  <defs
     id="defs7386" />
  <g
     inkscape:groupmode="layer"
     id="layer9"
     inkscape:label="status"
     style="display:inline"
     transform="translate(-283,-601)" />
  <g
     inkscape:groupmode="layer"
     id="layer10"
     inkscape:label="devices"
     transform="translate(-283,-601)" />
  <g
     inkscape:groupmode="layer"
     id="layer11"
     inkscape:label="apps"
     transform="translate(-283,-601)">
    <path
       style="opacity:1;fill:#bebebe;fill-opacity:1;stroke:none;stroke-width:0;stroke-miterlimit:4;stroke-dasharray:none;stroke-dashoffset:0;stroke-opacity:1"
       d="M 20 0 L 20 20 L 0 20 L 0 44 L 20 44 L 20 64 L 44 64 L 44 44 L 64 44 L 64 20 L 44 20 L 44 0 L 20 0 z M 23 3 L 41 3 L 41 23 L 61 23 L 61 41 L 41 41 L 41 61 L 23 61 L 23 41 L 3 41 L 3 23 L 23 23 L 23 3 z "
       transform="translate(283,601)"
       id="rect839" />
  </g>
  <g
     inkscape:groupmode="layer"
     id="layer13"
     inkscape:label="places"
     transform="translate(-283,-601)" />
  <g
     inkscape:groupmode="layer"
     id="layer14"
     inkscape:label="mimetypes"
     transform="translate(-283,-601)" />
  <g
     inkscape:groupmode="layer"
     id="layer15"
     inkscape:label="emblems"
     style="display:inline"
     transform="translate(-283,-601)" />
  <g
     inkscape:groupmode="layer"
     id="g71291"
     inkscape:label="emotes"
     style="display:inline"
     transform="translate(-283,-601)" />
  <g
     inkscape:groupmode="layer"
     id="g4953"
     inkscape:label="categories"
     style="display:inline"
     transform="translate(-283,-601)" />
  <g
     inkscape:groupmode="layer"
     id="layer12"
     inkscape:label="actions"
     style="display:inline"
     transform="translate(-283,-601)" />
</svg>
